icons/evolvere-blue-folders-flat-vivid-dark-fallback/apps/64/subtitles.svg

<svg xmlns="http://www.w3.org/2000/svg" viewBox="0 0 64 64"><g color="#000"><path d="m0 4v30 28l2 2h30 30l2-2v-28-30h-32-32" fill="#3b577a"/><path d="m2 0l-2 1v3h32 32v-3l-2-1h-30-30" fill="#668cbb"/></g><path d="m0 3v3l2-2" fill="#729bcd"/><path d="m64 6l-2-2 2-1" fill="#4f6f97"/><path d="m11 17v30h16l-3 9 13-9h16v-30zm3 3h9v6h-9zm27 0h9v6h-9zm-27 9h9v6h-9zm27 0h9v6h-9zm-27 9h9v6h-9zm27 0h9v6h-9z" fill="#fff" fill-opacity=".843" color="#000"/></svg>

<?xml version="1.0" encoding="UTF-8" standalone="no"?>
<!-- Created with Inkscape (http://www.inkscape.org/) -->

<svg
   xmlns:dc="http://purl.org/dc/elements/1.1/"
   xmlns:cc="http://creativecommons.org/ns#"
   xmlns:rdf="http://www.w3.org/1999/02/22-rdf-syntax-ns#"
   xmlns:svg="http://www.w3.org/2000/svg"
   xmlns="http://www.w3.org/2000/svg"
   xmlns:xlink="http://www.w3.org/1999/xlink"
   xmlns:sodipodi="http://sodipodi.sourceforge.net/DTD/sodipodi-0.dtd"
   xmlns:inkscape="http://www.inkscape.org/namespaces/inkscape"
   width="64"
   height="64"
   id="svg13094"
   version="1.1"
   inkscape:version="0.91+devel r"
   sodipodi:docname="subtitles.svg">
  <sodipodi:namedview
     id="base"
     pagecolor="#ffffff"
     bordercolor="#666666"
     borderopacity="1.0"
     inkscape:pageopacity="0"
     inkscape:pageshadow="2"
     inkscape:zoom="11.313709"
     inkscape:cx="35.983138"
     inkscape:cy="32.286418"
     inkscape:document-units="px"
     inkscape:current-layer="svg13094"
     showgrid="true"
     inkscape:snap-bbox="true"
     inkscape:bbox-paths="true"
     inkscape:bbox-nodes="true"
     inkscape:snap-bbox-edge-midpoints="true"
     inkscape:snap-bbox-midpoints="true"
     inkscape:object-paths="true"
     inkscape:snap-intersection-paths="true"
     inkscape:object-nodes="true"
     inkscape:snap-smooth-nodes="true"
     inkscape:snap-midpoints="true"
     inkscape:snap-object-midpoints="true"
     inkscape:snap-center="true"
     showguides="true"
     inkscape:guide-bbox="true"
     inkscape:window-width="1920"
     inkscape:window-height="1023"
     inkscape:window-x="-10"
     inkscape:window-y="35"
     inkscape:window-maximized="1"
     inkscape:snap-global="true"
     fit-margin-top="0"
     fit-margin-left="0"
     fit-margin-right="0"
     fit-margin-bottom="0"
     showborder="true"
     inkscape:showpageshadow="false"
     inkscape:snap-page="true">
    <inkscape:grid
       type="xygrid"
       id="grid3075"
       empspacing="5"
       visible="true"
       enabled="true"
       snapvisiblegridlinesonly="true"
       originx="1.6362304e-08px"
       originy="18px" />
  </sodipodi:namedview>
  <defs
     id="defs13096">
    <linearGradient
       id="linearGradient3921">
      <stop
         style="stop-color:#e9eaed;stop-opacity:1;"
         offset="0"
         id="stop3923" />
      <stop
         style="stop-color:#c1c5ca;stop-opacity:1;"
         offset="1"
         id="stop3925" />
    </linearGradient>
    <linearGradient
       id="linearGradient3101">
      <stop
         id="stop3103"
         style="stop-color:#cf5f1d;stop-opacity:1;"
         offset="0" />
      <stop
         offset="0.50318682"
         style="stop-color:#a1b828;stop-opacity:1;"
         id="stop3109" />
      <stop
         id="stop3105"
         style="stop-color:#269e47;stop-opacity:1;"
         offset="1" />
    </linearGradient>
    <linearGradient
       id="linearGradient3886">
      <stop
         id="stop3888"
         offset="0"
         style="stop-color:#ffffff;stop-opacity:0.76923078;" />
      <stop
         id="stop3890"
         offset="1"
         style="stop-color:#ffffff;stop-opacity:0.61990952;" />
    </linearGradient>
    <linearGradient
       inkscape:collect="always"
       xlink:href="#linearGradient3101"
       id="linearGradient3882"
       gradientUnits="userSpaceOnUse"
       gradientTransform="translate(14,-6)"
       x1="32"
       y1="15"
       x2="32"
       y2="64.683334" />
    <radialGradient
       inkscape:collect="always"
       xlink:href="#linearGradient3921"
       id="radialGradient3879-7"
       gradientUnits="userSpaceOnUse"
       gradientTransform="matrix(2.0317463e-8,2.2380952,-2.0982143,1.9047622e-8,69.041552,-52.619046)"
       cx="32"
       cy="17.653847"
       fx="32"
       fy="17.653847"
       r="21" />
    <linearGradient
       id="linearGradient3955">
      <stop
         offset="0"
         style="stop-color:#4b617d;stop-opacity:1;"
         id="stop3957" />
      <stop
         offset="1"
         style="stop-color:#393f44;stop-opacity:1;"
         id="stop3959" />
    </linearGradient>
  </defs>
  <metadata
     id="metadata13099">
    <rdf:RDF>
      <cc:Work
         rdf:about="">
        <dc:format>image/svg+xml</dc:format>
        <dc:type
           rdf:resource="http://purl.org/dc/dcmitype/StillImage" />
        <dc:title></dc:title>
      </cc:Work>
    </rdf:RDF>
  </metadata>
  <path
     inkscape:connector-curvature="0"
     style="color:#000000;display:inline;overflow:visible;visibility:visible;opacity:1;fill:#3b577a;fill-opacity:1;fill-rule:nonzero;stroke:none;stroke-width:1;stroke-linecap:butt;stroke-linejoin:miter;stroke-miterlimit:4;stroke-dasharray:none;stroke-dashoffset:0;stroke-opacity:1;marker:none;enable-background:accumulate"
     d="m 0,4 0,30 0,28 2,2 30,0 30,0 2,-2 L 64,34 64,4 32,4 0,4 Z"
     id="path4095" />
  <path
     inkscape:connector-curvature="0"
     style="color:#000000;display:inline;overflow:visible;visibility:visible;opacity:1;fill:#668cbb;fill-opacity:1;fill-rule:nonzero;stroke:none;stroke-width:2.28571415;stroke-linecap:butt;stroke-linejoin:miter;stroke-miterlimit:4;stroke-dasharray:none;stroke-dashoffset:0;stroke-opacity:1;marker:none;enable-background:accumulate"
     d="M 2,0 0,1 0,4 32,4 64,4 64,1 62,0 32,0 2,0 Z"
     id="path4090" />
  <path
     inkscape:connector-curvature="0"
     style="opacity:1;fill:#729bcd;fill-opacity:1;fill-rule:nonzero;stroke-width:1;stroke-linecap:butt;stroke-linejoin:miter;stroke-miterlimit:4;stroke-dasharray:none;stroke-dashoffset:0;stroke-opacity:1"
     d="M 0,3 0,6 2,4 Z"
     id="path4298"
     sodipodi:nodetypes="cccc" />
  <path
     d="M 64,6 62,4 64,3 Z"
     id="path3028"
     style="opacity:1;fill:#4f6f97;fill-opacity:1;stroke:none;stroke-width:0.62299293;stroke-linecap:butt;stroke-linejoin:miter;stroke-miterlimit:4;stroke-dasharray:none;stroke-dashoffset:0;stroke-opacity:1;marker:none"
     inkscape:connector-curvature="0" />
  <g
     id="g3043"
     inkscape:export-filename="folder.png"
     inkscape:export-xdpi="90"
     inkscape:export-ydpi="90"
     transform="translate(-0.62500009,0.082283)" />
  <g
     id="scalable"
     transform="matrix(1.0385892,0,0,1.0385892,1214.7222,1878.8121)"
     inkscape:label="#g3701"
     style="fill:#ffffff" />
  <path
     inkscape:connector-curvature="0"
     d="m 11,17 0,30 16,0 -3,9 13,-9 16,0 0,-30 z m 3,3 9,0 0,6 -9,0 z m 27,0 9,0 0,6 -9,0 z m -27,9 9,0 0,6 -9,0 z m 27,0 9,0 0,6 -9,0 z m -27,9 9,0 0,6 -9,0 z m 27,0 9,0 0,6 -9,0 z"
     id="path3877"
     style="color:#000000;display:inline;overflow:visible;visibility:visible;fill:#ffffff;fill-opacity:0.84347045;fill-rule:nonzero;stroke:none;stroke-width:1;marker:none;enable-background:accumulate"
     sodipodi:nodetypes="cccccccccccccccccccccccccccccccccccccc" />
</svg>
